X:14
%%pagewidth 7.5in
%%score 1 2
%%staffscale 1.0
T:Oft I Have Ridden Upon My Grey Nag.
M:6/8
L:1/8
K:F
V:1 clef-treble
V:2 clef-bass octave=-1
V:1
AFF FFF & C6-|AAB c2c & C6|BGGG2G & D6-|B2c d2B & D6|
w:Oft have I rid-den up-on my grey nag, And with his cut tail he play'd the wag, And
V:2
[FA]6-|[FA]6|[B,G]6-|[B,G]6|
V:1
A2F F2F & C6-|A2B c2c & C6|B>AG A>GA & C3 C3|[CG]3 [CG]3||
w:down he fell up-on his crag. Fa, la, re, la, la, ri dan-di-no.
V:2
[CA]6-|[CA]6|[CG]3 [CF]3|[CE]3 [CE]3||

